src/assets/svgs/ic-linux-logo.svg

<svg xmlns="http://www.w3.org/2000/svg" width="32" height="32" viewBox="0 0 32 32" fill="none">
  <path d="M27.4413 25.3987C26.708 24.804 26.9933 23.4907 26.232 22.8427C26.9693 18.356 24.9027 14.4013 22.4387 11.8667C20.3707 9.74 21.0373 7.67067 21.0373 5.88C21.0373 3.01867 19.8627 0 16.304 0C12.5 0 11.4573 3.17333 11.42 4.984C11.3293 9.33333 12.2987 10.464 9.75333 13.6293C6.75867 17.3533 6.31733 21.068 6.99333 23.0387C6.67733 23.4067 6.25067 23.8147 5.45333 24.152C3.25067 25.112 4.86533 26.7187 4.256 27.8587C4.08267 28.1827 4 28.5213 4 28.8453C4 29.8453 4.79467 30.7107 6.23867 30.5813C8.18667 30.408 9.984 31.788 11.1467 31.788C12.1733 31.788 13.016 31.204 13.408 30.4C15.244 29.948 17.5107 30.0053 19.3453 30.4787C19.6747 31.4 20.568 32 21.5613 32C23.736 32 24.1547 29.5347 26.6493 28.7C27.548 28.4 28 27.528 28 26.716C28 26.196 27.8147 25.7013 27.4413 25.3987ZM15.2453 11.4453C14.82 11.4453 14.468 11.1013 13.912 10.688C13.208 10.1653 12.492 9.864 12.5 9.31467C12.5 8.93733 13.0053 8.82133 13.6587 8.40667C14.36 7.96267 14.6333 7.512 15.324 7.512C16.0307 7.512 16.244 7.86933 17.204 8.284C18.148 8.69333 18.8053 8.85333 18.8053 9.31467C18.8053 9.788 17.8173 10.1267 17.2613 10.472C16.444 10.976 16.024 11.4453 15.2453 11.4453ZM17.4653 4.492C18.6413 4.68 18.7733 6.74667 18.2107 7.764L17.7373 7.57067C17.9827 6.84667 17.9787 5.65467 17.1573 5.57867C16.636 5.53067 16.3 6.21867 16.228 6.808C16.024 6.72267 15.8013 6.66133 15.5307 6.63867C15.6133 5.408 16.408 4.32267 17.4653 4.492ZM12.928 4.93333C13.8293 4.70933 14.3613 5.75733 14.3653 6.84667L13.952 7.1C13.896 6.64267 13.692 5.904 13.18 6.06133C12.632 6.232 12.7213 7.50533 13.0267 7.76667L12.6187 7.99333C12.0587 7.05067 12.06 5.14933 12.928 4.93333ZM10.108 30.5907C7.49067 29.4 6.60133 29.6707 6.10133 29.6707C5.06533 29.6707 4.72667 28.8987 5.116 28.168C5.44667 27.548 5.344 26.8987 5.26267 26.3773C5.13733 25.5787 5.11467 25.3187 5.9 24.9747C6.98667 24.5133 7.46933 23.92 7.82933 23.476C8.84 22.2267 9.86 24.192 10.696 25.9427C11.2387 27.0773 12.3067 27.652 12.636 28.9093C12.9387 30.0707 11.6893 31.3107 10.108 30.5907ZM19.424 28.092C17.5787 28.9893 15.228 29.4013 13.4693 28.4907C13.2093 27.74 12.7933 27.2547 12.3453 26.7667C13.064 26.5773 13.5973 25.6813 12.9587 24.7813C12.2773 23.82 10.8853 23.1493 9.47867 22.0613C8.16267 21.044 7.74667 18.536 9.53867 15.7333C8.66533 18.216 9.176 20.504 9.61467 21.1587C9.70533 19.8413 9.80933 17.6413 11.6093 15.0053C12.5173 13.6747 12.5307 11.9173 12.5507 10.8187L13.3773 11.384C13.9853 11.8333 14.4947 12.328 15.2253 12.328C16.3053 12.328 16.9027 11.7067 17.7347 11.1907C18.06 10.9907 18.552 10.788 18.9653 10.5067C19.6587 13.808 22.5307 17.7787 22.692 20.04C23.36 18.664 22.5027 15.3547 22.5027 15.3547C23.6253 17.068 23.7147 18.496 23.764 20.248C24.5493 20.5693 25.392 21.4067 25.4693 22.5093L25.1427 22.472C24.9747 21.2467 21.6667 19.4467 21.3693 21.7533C19.7827 21.9947 20.36 24.508 20.04 26.1373C19.8933 26.8827 19.6213 27.472 19.424 28.092ZM25.8853 28.0373C24.572 28.544 23.6853 29.62 23.076 30.288C21.9027 31.576 20.3507 30.9587 20.1853 29.7533C20.0107 28.4653 20.6653 27.7627 20.948 26.3213C21.2053 25.0053 20.9173 22.98 21.5227 22.764C21.916 25.1013 24.2773 24.1187 24.816 23.4813C25.692 23.4813 25.7653 23.7773 25.9613 24.5973C26.084 25.1107 26.2533 25.5427 26.732 26.0507C27.2893 26.6467 27.1187 27.5613 25.8853 28.0373ZM15.2187 10.696C14.3507 10.696 13.7013 10.1187 13.1733 9.67067C12.9027 9.44267 13.24 9.02133 13.5107 9.25067C14.0267 9.688 14.5467 10.1507 15.2187 10.1507C16.028 10.1507 16.7413 9.45867 17.708 9.07733C18.0373 8.948 18.2253 9.45733 17.8987 9.58667C16.96 9.956 16.2067 10.696 15.2187 10.696Z" fill="#333333"/>
</svg>

<svg fill="none" viewBox="0 0 32 32"><path fill="var(--text-prominent)" d="M27.441 25.399c-.733-.595-.448-1.908-1.209-2.556.737-4.487-1.33-8.442-3.793-10.976C20.37 9.74 21.037 7.67 21.037 5.88c0-2.861-1.174-5.88-4.733-5.88-3.804 0-4.847 3.173-4.884 4.984-.09 4.35.879 5.48-1.667 8.645-2.994 3.724-3.436 7.439-2.76 9.41-.316.368-.742.776-1.54 1.113-2.202.96-.588 2.567-1.197 3.707a2.094 2.094 0 00-.256.986c0 1 .795 1.866 2.239 1.736 1.948-.173 3.745 1.207 4.908 1.207 1.026 0 1.869-.584 2.261-1.388 1.836-.452 4.103-.395 5.937.079.33.921 1.223 1.521 2.216 1.521 2.175 0 2.594-2.465 5.088-3.3.899-.3 1.351-1.172 1.351-1.984 0-.52-.185-1.015-.559-1.317zM15.245 11.445c-.425 0-.777-.344-1.333-.757-.704-.523-1.42-.824-1.412-1.373 0-.378.505-.494 1.159-.908.701-.444.974-.895 1.665-.895.707 0 .92.357 1.88.772.944.41 1.601.57 1.601 1.03 0 .474-.988.813-1.544 1.158-.817.504-1.237.973-2.016.973zm2.22-6.953c1.176.188 1.308 2.255.746 3.272l-.474-.193c.246-.724.242-1.916-.58-1.992-.521-.048-.857.64-.929 1.229a2.249 2.249 0 00-.697-.17c.082-1.23.877-2.315 1.934-2.146zm-4.537.441c.901-.224 1.433.824 1.437 1.914l-.413.253c-.056-.457-.26-1.196-.772-1.039-.548.171-.459 1.444-.153 1.706l-.408.226c-.56-.942-.559-2.844.309-3.06zm-2.82 25.658c-2.617-1.191-3.507-.92-4.007-.92-1.036 0-1.374-.772-.985-1.503.33-.62.228-1.27.147-1.79-.126-.8-.148-1.06.637-1.403 1.087-.462 1.57-1.055 1.93-1.499 1.01-1.25 2.03.716 2.866 2.467.543 1.134 1.61 1.709 1.94 2.966.303 1.162-.947 2.402-2.528 1.682zm9.316-2.499c-1.845.897-4.196 1.31-5.955.399-.26-.751-.676-1.236-1.124-1.724.719-.19 1.252-1.086.614-1.986-.682-.961-2.074-1.632-3.48-2.72-1.316-1.017-1.732-3.525.06-6.328-.874 2.483-.363 4.771.076 5.426.09-1.318.194-3.518 1.994-6.154.908-1.33.922-3.088.942-4.186l.826.565c.608.45 1.118.944 1.848.944 1.08 0 1.678-.621 2.51-1.137.325-.2.817-.403 1.23-.684.694 3.301 3.566 7.272 3.727 9.533.668-1.376-.19-4.685-.19-4.685 1.123 1.713 1.213 3.141 1.262 4.893.785.321 1.628 1.159 1.705 2.261l-.326-.037c-.168-1.225-3.476-3.025-3.774-.719-1.586.242-1.009 2.755-1.329 4.384-.147.746-.419 1.335-.616 1.955zm6.461-.055c-1.313.507-2.2 1.583-2.809 2.251-1.173 1.288-2.725.67-2.89-.535-.175-1.288.48-1.99.762-3.432.257-1.316-.03-3.341.575-3.557.393 2.337 2.754 1.355 3.293.717.876 0 .95.296 1.145 1.116.123.514.292.946.771 1.454.557.596.387 1.51-.847 1.986zM15.22 10.696c-.868 0-1.518-.577-2.046-1.025-.27-.228.067-.65.338-.42.516.437 1.036.9 1.708.9.809 0 1.522-.692 2.489-1.074.33-.129.517.38.19.51-.938.369-1.691 1.109-2.68 1.109z"/></svg>
